;FLAVOR:Marlin
;TIME:1662
;Filament used: 1.12315m
;Layer height: 0.2
;MINX:82.398
;MINY:93.5
;MINZ:0.2
;MAXX:137.586
;MAXY:146.364
;MAXZ:15
;POSTPROCESSED
;Generated with Cura_SteamEngine 5.2.1
M140 S70
M105
M190 S70
M104 S235
M105
M109 S235
M82 ;absolute extrusion mode
; Ender 3 Custom Start G-code
G92 E0 ; Reset Extruder
G28 ; Home all axes
G1 Z2.0 F3000 ; Move Z Axis up little to prevent scratching of Heat Bed
G1 X0.1 Y20 Z0.3 F5000.0 ; Move to start position
G1 X0.1 Y200.0 Z0.3 F1500.0 E15 ; Draw the first line
G1 X0.4 Y200.0 Z0.3 F5000.0 ; Move to side a little
G1 X0.4 Y20 Z0.3 F1500.0 E30 ; Draw the second line
G92 E0 ; Reset Extruder
G1 Z2.0 F3000 ; Move Z Axis up little to prevent scratching of Heat Bed
G1 X5 Y20 Z0.3 F5000.0 ; Move over to prevent blob squish
G92 E0
G92 E0
G1 F3000 E-5
;LAYER_COUNT:75
;LAYER:0
M117 Printing CE3E3V2_PETG_E3-OTSI_knob_rev1_1h - Layer 0 of 74
M107
G0 F6000 X86.291 Y100.144 Z0.2
;TYPE:SKIRT
G1 F3000 E0
G1 F900 X87.237 Y99.425 E0.03952
G1 X88.025 Y98.891 E0.07118
G1 X88.783 Y98.393 E0.10135
G1 X90.239 Y97.399 E0.15998
G1 X91.037 Y96.907 E0.19116
G1 X91.875 Y96.485 E0.22237
G1 X92.745 Y96.136 E0.25355
G1 X93.642 Y95.862 E0.28474
G1 X94.559 Y95.665 E0.31594
G1 X95.49 Y95.548 E0.34715
G1 X96.065 Y95.515 E0.3663
G1 X96.728 Y95.5 E0.38836
G1 X99.457 Y95.5 E0.47913
G1 X102.065 Y95.463 E0.56588
G1 X104.586 Y95.356 E0.6498
G1 X107.081 Y95.179 E0.73299
G1 X109.581 Y94.931 E0.81655
G1 X112.074 Y94.612 E0.90015
G1 X114.603 Y94.215 E0.98529
G1 X117.223 Y93.727 E1.07393
G1 X118.15 Y93.585 E1.10512
G1 X119.134 Y93.522 E1.13792
G1 X120.379 Y93.5 E1.17933
G1 X125.348 Y93.501 E1.3446
G1 X126.05 Y93.511 E1.36795
G1 X126.986 Y93.564 E1.39914
G1 X127.914 Y93.697 E1.43032
G1 X128.828 Y93.909 E1.46152
G1 X129.721 Y94.197 E1.49273
G1 X130.585 Y94.561 E1.52391
G1 X131.416 Y94.997 E1.55513
G1 X132.206 Y95.502 E1.58631
G1 X132.95 Y96.072 E1.61748
G1 X133.643 Y96.704 E1.64868
G1 X134.28 Y97.393 E1.67989
G1 X134.933 Y98.242 E1.71551
G1 X135.245 Y98.692 E1.73373
G1 X135.827 Y99.582 E1.76909
G1 X136.302 Y100.39 E1.80027
G1 X136.707 Y101.236 E1.83146
G1 X137.039 Y102.113 E1.86265
G1 X137.294 Y103.016 E1.89386
G1 X137.472 Y103.937 E1.92506
G1 X137.57 Y104.869 E1.95623
G1 X137.586 Y105.917 E1.99109
G1 X137.507 Y108.327 E2.07129
G1 X137.493 Y110.863 E2.15564
G1 X137.578 Y114.175 E2.26583
G1 X137.562 Y115.113 E2.29704
G1 X137.467 Y116.046 E2.32823
G1 X137.292 Y116.968 E2.35944
G1 X137.039 Y117.871 E2.39063
G1 X136.71 Y118.749 E2.42182
G1 X136.12 Y119.938 E2.46597
G1 X135.234 Y121.465 E2.52468
G1 X134.012 Y123.667 E2.60844
G1 X132.865 Y125.88 E2.69135
G1 X131.769 Y128.148 E2.77513
G1 X130.752 Y130.418 E2.85786
G1 X130.05 Y132.13 E2.9194
G1 X129.963 Y132.32 E2.92635
G1 X129.45 Y133.554 E2.9708
G1 X129.243 Y134.023 E2.98785
G1 X128.959 Y134.626 E3.01002
G1 X128.66 Y135.213 E3.03193
G1 X128.501 Y135.504 E3.04296
G1 X128.017 Y136.307 E3.07415
G1 X127.746 Y136.697 E3.08994
G1 X126.328 Y138.648 E3.17016
G1 X125.745 Y139.383 E3.20136
G1 X125.232 Y139.935 E3.22643
G1 X124.579 Y140.578 E3.25691
G1 X124.096 Y141.025 E3.2788
G1 X123.554 Y141.496 E3.30268
G1 X123.152 Y141.822 E3.31989
G1 X122.58 Y142.262 E3.3439
G1 X122.161 Y142.563 E3.36105
G1 X121.724 Y142.862 E3.37867
G1 X121.106 Y143.255 E3.40302
G1 X120.571 Y143.571 E3.42369
G1 X120.006 Y143.883 E3.44516
G1 X119.366 Y144.212 E3.46909
G1 X118.514 Y144.605 E3.5003
G1 X117.906 Y144.834 E3.52191
G1 X116.938 Y145.166 E3.55595
G1 X116.423 Y145.318 E3.5738
G1 X115.421 Y145.644 E3.60885
G1 X114.518 Y145.896 E3.64003
G1 X113.734 Y146.049 E3.6666
G1 X113.1 Y146.149 E3.68795
G1 X112.519 Y146.225 E3.70744
G1 X112.036 Y146.275 E3.72359
G1 X111.457 Y146.319 E3.7429
G1 X110.882 Y146.348 E3.76205
G1 X110.367 Y146.362 E3.77918
G1 X109.803 Y146.364 E3.79794
G1 X109.072 Y146.342 E3.82227
G1 X108.612 Y146.313 E3.8376
G1 X108.008 Y146.258 E3.85777
G1 X107.078 Y146.141 E3.88895
G1 X106.52 Y146.054 E3.90773
G1 X105.601 Y145.87 E3.9389
G1 X104.813 Y145.646 E3.96615
G1 X102.504 Y144.895 E4.04691
G1 X101.625 Y144.567 E4.07811
G1 X100.879 Y144.218 E4.1055
G1 X100.192 Y143.865 E4.13119
G1 X99.569 Y143.519 E4.1549
G1 X99.113 Y143.246 E4.17257
G1 X98.545 Y142.886 E4.19494
G1 X98.185 Y142.644 E4.20937
G1 X97.635 Y142.248 E4.23191
G1 X97.069 Y141.814 E4.25563
G1 X96.74 Y141.549 E4.26968
G1 X96.157 Y141.044 E4.29534
G1 X95.642 Y140.566 E4.31871
G1 X95.014 Y139.948 E4.34801
G1 X94.381 Y139.256 E4.3792
G1 X93.902 Y138.644 E4.40505
G1 X92.477 Y136.681 E4.48573
G1 X91.959 Y135.899 E4.51693
G1 X91.644 Y135.341 E4.53824
G1 X91.392 Y134.862 E4.55624
G1 X91.098 Y134.258 E4.57859
G1 X90.875 Y133.763 E4.59664
G1 X90.631 Y133.177 E4.61776
G1 X90.301 Y132.294 E4.64911
G1 X90.088 Y131.669 E4.67107
G1 X89.532 Y129.944 E4.73135
G1 X88.676 Y127.516 E4.81698
G1 X87.794 Y125.227 E4.89857
G1 X86.81 Y122.872 E4.98346
G1 X85.769 Y120.562 E5.06773
G1 X84.664 Y118.288 E5.15182
G1 X83.635 Y116.296 E5.22639
G1 X83.24 Y115.445 E5.2576
G1 X82.92 Y114.564 E5.28877
G1 X82.675 Y113.658 E5.31999
G1 X82.509 Y112.735 E5.35118
G1 X82.413 Y111.583 E5.38963
G1 X82.398 Y110.92 E5.41168
G1 X82.399 Y109.075 E5.47305
G1 X82.409 Y108.374 E5.49637
G1 X82.462 Y107.438 E5.52755
G1 X82.595 Y106.509 E5.55876
G1 X82.807 Y105.596 E5.58994
G1 X83.095 Y104.703 E5.62114
G1 X83.459 Y103.839 E5.65233
G1 X83.895 Y103.008 E5.68354
G1 X84.4 Y102.218 E5.71472
G1 X84.97 Y101.474 E5.7459
G1 X85.602 Y100.781 E5.77709
G1 X86.291 Y100.144 E5.8083
G0 F6000 X86.679 Y100.34
G1 F900 X87.462 Y99.756 E5.84079
G1 X88.384 Y99.132 E5.87782
G1 X89.008 Y98.723 E5.90263
G1 X90.463 Y97.73 E5.96122
G1 X91.247 Y97.248 E5.99183
G1 X92.07 Y96.835 E6.02246
G1 X92.926 Y96.496 E6.05308
G1 X93.808 Y96.232 E6.0837
G1 X94.71 Y96.046 E6.11434
G1 X96.077 Y95.915 E6.16001
G1 X96.728 Y95.9 E6.18167
G1 X99.463 Y95.9 E6.27264
G1 X102.088 Y95.863 E6.35995
G1 X104.596 Y95.756 E6.44344
G1 X107.116 Y95.578 E6.52747
G1 X109.631 Y95.329 E6.61153
G1 X112.12 Y95.01 E6.69499
G1 X114.659 Y94.611 E6.78047
G1 X117.3 Y94.119 E6.86982
G1 X118.211 Y93.981 E6.90047
G1 X119.142 Y93.922 E6.9315
G1 X120.379 Y93.9 E6.97265
G1 X125.191 Y93.9 E7.13269
G1 X126.044 Y93.911 E7.16107
G1 X126.963 Y93.964 E7.19168
G1 X127.874 Y94.097 E7.2223
G1 X128.77 Y94.308 E7.25292
G1 X129.645 Y94.596 E7.28356
G1 X130.491 Y94.959 E7.31418
G1 X131.302 Y95.394 E7.34479
G1 X132.073 Y95.898 E7.37542
G1 X132.797 Y96.466 E7.40603
G1 X133.469 Y97.096 E7.43667
G1 X134.083 Y97.781 E7.46726
G1 X134.604 Y98.47 E7.49599
G1 X135.104 Y99.201 E7.52545
G1 X135.491 Y99.799 E7.54914
G1 X135.957 Y100.593 E7.57976
G1 X136.353 Y101.424 E7.61038
G1 X136.675 Y102.287 E7.64102
G1 X136.92 Y103.174 E7.67162
G1 X137.088 Y104.079 E7.70224
G1 X137.177 Y104.996 E7.73288
G1 X137.186 Y105.904 E7.76308
G1 X137.107 Y108.312 E7.84322
G1 X137.093 Y110.84 E7.9273
G1 X137.179 Y114.186 E8.03862
G1 X137.162 Y115.106 E8.06923
G1 X137.066 Y116.022 E8.09986
G1 X136.891 Y116.926 E8.13049
G1 X136.638 Y117.811 E8.1611
G1 X136.309 Y118.671 E8.19173
G1 X135.773 Y119.739 E8.23147
G1 X134.883 Y121.273 E8.29046
G1 X133.665 Y123.468 E8.37395
G1 X132.507 Y125.701 E8.45761
G1 X131.402 Y127.989 E8.54212
G1 X130.386 Y130.256 E8.62475
G1 X129.68 Y131.978 E8.68665
G1 X129.599 Y132.153 E8.69306
G1 X129.081 Y133.401 E8.738
G1 X128.881 Y133.853 E8.75444
G1 X128.597 Y134.456 E8.77661
G1 X128.309 Y135.022 E8.79774
G1 X128.15 Y135.313 E8.80876
G1 X127.423 Y136.462 E8.85399
G1 X126.005 Y138.413 E8.93421
G1 X125.431 Y139.134 E8.96486
G1 X124.949 Y139.653 E8.98842
G1 X124.308 Y140.285 E9.01836
G1 X123.825 Y140.732 E9.04025
G1 X123.302 Y141.185 E9.06326
G1 X122.9 Y141.511 E9.08047
G1 X122.339 Y141.943 E9.10402
G1 X121.935 Y142.233 E9.12056
G1 X121.498 Y142.532 E9.13817
G1 X120.903 Y142.911 E9.16164
G1 X120.368 Y143.227 E9.1823
G1 X119.823 Y143.527 E9.203
G1 X119.183 Y143.856 E9.22693
G1 X118.347 Y144.241 E9.25754
G1 X117.776 Y144.456 E9.27784
G1 X116.808 Y144.788 E9.31187
G1 X116.32 Y144.932 E9.3288
G1 X115.298 Y145.264 E9.36454
G1 X114.411 Y145.51 E9.39515
G1 X113.672 Y145.654 E9.42019
G1 X113.038 Y145.754 E9.44154
G1 X112.477 Y145.827 E9.46036
G1 X111.994 Y145.877 E9.47651
G1 X111.437 Y145.92 E9.49509
G1 X110.862 Y145.949 E9.51424
G1 X110.366 Y145.962 E9.53074
G1 X109.802 Y145.964 E9.5495
G1 X109.097 Y145.943 E9.57296
G1 X108.637 Y145.914 E9.58829
G1 X108.055 Y145.861 E9.60772
G1 X107.524 Y145.798 E9.62551
G1 X106.582 Y145.658 E9.65719
G1 X105.679 Y145.477 E9.68782
G1 X104.936 Y145.265 E9.71352
G1 X102.627 Y144.514 E9.79427
G1 X101.765 Y144.192 E9.82488
G1 X101.062 Y143.862 E9.85071
G1 X100.375 Y143.509 E9.8764
G1 X99.774 Y143.176 E9.89925
G1 X99.318 Y142.903 E9.91693
G1 X98.762 Y142.55 E9.93883
G1 X98.416 Y142.317 E9.95271
G1 X97.876 Y141.929 E9.97482
G1 X97.577 Y141.703 E9.98729
G1 X96.991 Y141.237 E10.01219
G1 X96.429 Y140.751 E10.0369
G1 X95.914 Y140.273 E10.06027
G1 X95.297 Y139.666 E10.08906
G1 X94.676 Y138.986 E10.11969
G1 X94.226 Y138.409 E10.14403
G1 X92.801 Y136.446 E10.2247
G1 X92.293 Y135.678 E10.25533
G1 X91.998 Y135.154 E10.27533
G1 X91.746 Y134.675 E10.29333
G1 X91.462 Y134.094 E10.31484
G1 X91.239 Y133.599 E10.3329
G1 X91.004 Y133.034 E10.35325
G1 X90.68 Y132.165 E10.3841
G1 X90.409 Y131.365 E10.41219
G1 X89.904 Y129.794 E10.46708
G1 X89.062 Y127.406 E10.5513
G1 X88.165 Y125.078 E10.63427
G1 X87.167 Y122.689 E10.72039
G1 X86.135 Y120.401 E10.80387
G1 X85.03 Y118.125 E10.88802
G1 X83.99 Y116.112 E10.96338
G1 X83.604 Y115.277 E10.99398
G1 X83.291 Y114.411 E11.0246
G1 X83.055 Y113.521 E11.05523
G1 X82.896 Y112.614 E11.08585
G1 X82.813 Y111.571 E11.12065
G1 X82.798 Y110.92 E11.14231
G1 X82.799 Y109.081 E11.20348
G1 X82.809 Y108.38 E11.22679
G1 X82.862 Y107.461 E11.25741
G1 X82.995 Y106.55 E11.28803
G1 X83.206 Y105.654 E11.31865
G1 X83.494 Y104.779 E11.34929
G1 X83.857 Y103.933 E11.37991
G1 X84.292 Y103.122 E11.41052
G1 X84.796 Y102.351 E11.44115
G1 X85.365 Y101.627 E11.47178
G1 X85.994 Y100.955 E11.50239
G1 X86.679 Y100.34 E11.53301
G0 F6000 X87.067 Y100.541
G1 F900 X87.686 Y100.087 E11.55854
G1 X88.603 Y99.467 E11.59536
G1 X89.227 Y99.058 E11.62018
G1 X89.732 Y98.707 E11.64063
G1 X90.687 Y98.061 E11.67898
G1 X91.457 Y97.589 E11.70902
G1 X92.265 Y97.187 E11.73903
G1 X93.106 Y96.857 E11.76908
G1 X93.973 Y96.603 E11.79913
G1 X94.859 Y96.427 E11.82918
G1 X96.089 Y96.315 E11.87025
G1 X96.728 Y96.3 E11.89151
G1 X99.469 Y96.3 E11.98268
G1 X102.075 Y96.263 E12.06936
G1 X104.64 Y96.154 E12.15475
G1 X107.147 Y95.976 E12.23835
G1 X109.688 Y95.725 E12.32327
G1 X112.196 Y95.404 E12.40737
G1 X114.684 Y95.013 E12.49114
G1 X117.378 Y94.512 E12.58227
G1 X118.271 Y94.377 E12.61231
G1 X119.149 Y94.322 E12.64157
G1 X120.379 Y94.3 E12.68249
G1 X125.191 Y94.3 E12.84254
G1 X126.038 Y94.311 E12.87071
G1 X126.94 Y94.364 E12.90076
G1 X127.833 Y94.496 E12.93079
G1 X128.711 Y94.707 E12.96082
G1 X129.567 Y94.995 E12.99086
G1 X130.395 Y95.357 E13.02092
G1 X131.187 Y95.791 E13.05095
G1 X131.937 Y96.294 E13.08099
G1 X132.64 Y96.86 E13.11101
G1 X133.29 Y97.487 E13.14105
G1 X133.882 Y98.169 E13.17108
G1 X134.275 Y98.698 E13.193
G1 X134.768 Y99.418 E13.22203
G1 X135.155 Y100.016 E13.24572
G1 X135.612 Y100.795 E13.27576
G1 X135.998 Y101.612 E13.30581
G1 X136.31 Y102.459 E13.33583
G1 X136.546 Y103.331 E13.36588
G1 X136.704 Y104.22 E13.39591
G1 X136.783 Y105.12 E13.42596
G1 X136.787 Y105.891 E13.4516
G1 X136.707 Y108.334 E13.5329
G1 X136.693 Y110.847 E13.61648
G1 X136.779 Y114.196 E13.72791
G1 X136.762 Y115.099 E13.75795
G1 X136.665 Y115.997 E13.78799
G1 X136.49 Y116.883 E13.81803
G1 X136.236 Y117.75 E13.84808
G1 X135.907 Y118.591 E13.87811
G1 X135.426 Y119.539 E13.91347
G1 X134.547 Y121.054 E13.97173
G1 X133.318 Y123.269 E14.05598
G1 X132.15 Y125.522 E14.14038
G1 X131.041 Y127.817 E14.22516
G1 X130.003 Y130.131 E14.30951
G1 X129.309 Y131.826 E14.37043
G1 X129.231 Y131.996 E14.37665
G1 X128.711 Y133.247 E14.42171
G1 X128.519 Y133.682 E14.43753
G1 X128.235 Y134.285 E14.4597
G1 X127.958 Y134.83 E14.48003
G1 X127.799 Y135.121 E14.49106
G1 X127.099 Y136.227 E14.53459
G1 X125.681 Y138.178 E14.61481
G1 X125.118 Y138.884 E14.64485
G1 X124.665 Y139.371 E14.66697
G1 X124.036 Y139.991 E14.69634
G1 X123.553 Y140.438 E14.71823
G1 X123.05 Y140.874 E14.74037
G1 X122.648 Y141.2 E14.75759
G1 X122.097 Y141.624 E14.78071
G1 X121.709 Y141.903 E14.79661
G1 X121.272 Y142.202 E14.81422
G1 X120.699 Y142.566 E14.83679
G1 X120.164 Y142.882 E14.85746
G1 X119.64 Y143.172 E14.87738
G1 X119 Y143.501 E14.90131
G1 X118.18 Y143.877 E14.93132
G1 X117.646 Y144.077 E14.95028
G1 X116.678 Y144.409 E14.98432
G1 X116.188 Y144.553 E15.00131
G1 X115.174 Y144.883 E15.03677
G1 X114.304 Y145.124 E15.0668
G1 X113.609 Y145.258 E15.09034
G1 X112.975 Y145.358 E15.11169
G1 X112.436 Y145.429 E15.12977
G1 X111.953 Y145.479 E15.14592
G1 X111.417 Y145.52 E15.1638
G1 X110.842 Y145.549 E15.18295
G1 X110.364 Y145.562 E15.19886
G1 X109.8 Y145.564 E15.21761
G1 X109.122 Y145.544 E15.24017
G1 X108.662 Y145.515 E15.2555
G1 X108.102 Y145.464 E15.27421
G1 X107.571 Y145.401 E15.29199
G1 X106.644 Y145.263 E15.32316
G1 X105.758 Y145.085 E15.35322
G1 X105.06 Y144.885 E15.37737
G1 X102.751 Y144.134 E15.45813
G1 X101.906 Y143.817 E15.48815
G1 X101.244 Y143.506 E15.51247
G1 X100.557 Y143.153 E15.53816
G1 X99.98 Y142.833 E15.56011
G1 X99.524 Y142.56 E15.57778
G1 X98.979 Y142.215 E15.59924
G1 X98.646 Y141.99 E15.6126
G1 X98.118 Y141.61 E15.63424
G1 X97.571 Y141.191 E15.65716
G1 X97.242 Y140.926 E15.67121
G1 X96.701 Y140.458 E15.695
G1 X96.186 Y139.98 E15.71837
G1 X95.58 Y139.383 E15.74667
G1 X94.972 Y138.716 E15.77668
G1 X94.55 Y138.174 E15.79953
G1 X93.125 Y136.211 E15.88021
G1 X92.627 Y135.457 E15.91026
G1 X92.352 Y134.968 E15.92892
G1 X92.1 Y134.489 E15.94692
G1 X91.827 Y133.93 E15.96762
G1 X91.604 Y133.435 E15.98567
G1 X91.378 Y132.891 E16.00527
G1 X91.058 Y132.036 E16.03563
G1 X90.789 Y131.243 E16.06348
G1 X90.275 Y129.644 E16.11934
G1 X89.441 Y127.278 E16.20278
G1 X88.52 Y124.886 E16.28804
G1 X87.544 Y122.55 E16.37224
G1 X86.496 Y120.227 E16.457
G1 X85.403 Y117.978 E16.54017
G1 X84.345 Y115.929 E16.61687
G1 X83.967 Y115.109 E16.6469
G1 X83.662 Y114.259 E16.67694
G1 X83.434 Y113.385 E16.70698
G1 X83.284 Y112.494 E16.73703
G1 X83.213 Y111.559 E16.76822
G1 X83.198 Y110.92 E16.78948
G1 X83.199 Y109.087 E16.85044
G1 X83.209 Y108.386 E16.87376
G1 X83.262 Y107.484 E16.90381
G1 X83.394 Y106.591 E16.93384
G1 X83.605 Y105.712 E16.9639
G1 X83.893 Y104.856 E16.99394
G1 X84.255 Y104.029 E17.02397
G1 X84.689 Y103.237 E17.05401
G1 X85.192 Y102.487 E17.08404
G1 X85.759 Y101.784 E17.11408
G1 X86.385 Y101.134 E17.1441
G1 X87.067 Y100.541 E17.17415
G1 F3000 E12.17415
;MESH:antena holder v1.1.stl
G0 F6000 X95.733 Y106.914
G0 X96.812 Y106.914
G0 X113.767 Y107.601
G0 X119.583 Y105.661
G0 X122.195 Y105.687
G0 X120.685 Y110.024
G0 X122.048 Y113.937
;TYPE:WALL-INNER
G1 F3000 E17.17415
G1 F900 X121.77 Y113.634 E17.18783
G1 X121.564 Y113.388 E17.1985
G1 X121.39 Y113.15 E17.20831
G1 X121.149 Y112.791 E17.22269
G1 X120.949 Y112.4 E17.2373
G1 X120.74 Y111.921 E17.25468
G1 X120.62 Y111.552 E17.26759
G1 X120.51 Y111.127 E17.28219
G1 X120.43 Y110.594 E17.30011
G1 X120.392 Y110.165 E17.31444
G1 X120.408 Y109.67 E17.33091
G1 X120.455 Y109.18 E17.34728
G1 X120.559 Y108.649 E17.36528
G1 X120.736 Y108.092 E17.38472
G1 X120.92 Y107.66 E17.40034
G1 X121.12 Y107.266 E17.41503
G1 X121.416 Y106.811 E17.43309
G1 X121.594 Y106.576 E17.44289
G1 X121.92 Y106.193 E17.45962
G1 X122.188 Y105.939 E17.4719
G1 X122.41 Y105.745 E17.48171
G1 X122.73 Y105.501 E17.49509
G1 X119.557 Y105.5 E17.60062
G1 X113.562 Y107.5 E17.81082
G1 X97.398 Y107.5 E18.34844
G1 X97.398 Y108.525 E18.38253
