;FLAVOR:Marlin
;TIME:5669
;Filament used: 3.62418m
;Layer height: 0.2
;MINX:58.567
;MINY:69.329
;MINZ:0.2
;MAXX:164.389
;MAXY:149.5
;MAXZ:37.6
;POSTPROCESSED
;Generated with Cura_SteamEngine 5.2.1
M140 S70
M105
M190 S70
M104 S235
M105
M109 S235
M82 ;absolute extrusion mode
; Ender 3 Custom Start G-code
G92 E0 ; Reset Extruder
G28 ; Home all axes
G1 Z2.0 F3000 ; Move Z Axis up little to prevent scratching of Heat Bed
G1 X0.1 Y20 Z0.3 F5000.0 ; Move to start position
G1 X0.1 Y200.0 Z0.3 F1500.0 E15 ; Draw the first line
G1 X0.4 Y200.0 Z0.3 F5000.0 ; Move to side a little
G1 X0.4 Y20 Z0.3 F1500.0 E30 ; Draw the second line
G92 E0 ; Reset Extruder
G1 Z2.0 F3000 ; Move Z Axis up little to prevent scratching of Heat Bed
G1 X5 Y20 Z0.3 F5000.0 ; Move over to prevent blob squish
G92 E0
G92 E0
G1 F3000 E-5
;LAYER_COUNT:200
;LAYER:0
M117 Printing CE3E3V2_cover v2.1 - Layer 0 of 199
M107
G0 F6000 X62.612 Y73.127 Z0.2
;TYPE:SKIRT
G1 F3000 E0
G1 F900 X63.352 Y72.551 E0.03119
G1 X64.139 Y72.04 E0.0624
G1 X64.965 Y71.597 E0.09357
G1 X65.827 Y71.227 E0.12477
G1 X66.717 Y70.931 E0.15597
G1 X67.629 Y70.713 E0.18716
G1 X68.557 Y70.572 E0.21838
G1 X69.428 Y70.513 E0.24741
G1 X70.057 Y70.5 E0.26834
G1 X133.874 Y70.5 E2.3909
G1 X136.482 Y70.463 E2.47765
G1 X139.003 Y70.356 E2.56158
G1 X141.498 Y70.179 E2.64477
G1 X144.025 Y69.929 E2.72923
G1 X146.013 Y69.681 E2.79586
G1 X146.823 Y69.571 E2.82305
G1 X147.665 Y69.489 E2.85119
G1 X148.184 Y69.459 E2.86848
G1 X150.944 Y69.348 E2.96035
G1 X151.65 Y69.329 E2.98384
G1 X152.588 Y69.344 E3.01504
G1 X153.521 Y69.438 E3.04623
G1 X154.443 Y69.612 E3.07744
G1 X155.346 Y69.864 E3.10862
G1 X156.225 Y70.191 E3.13981
G1 X157.072 Y70.593 E3.17099
G1 X158.269 Y71.324 E3.21764
G1 X159.043 Y71.874 E3.24922
G1 X159.596 Y72.289 E3.27222
G1 X160.321 Y72.883 E3.30339
G1 X160.993 Y73.537 E3.33458
G1 X161.607 Y74.246 E3.36578
G1 X162.159 Y75.005 E3.39699
G1 X162.643 Y75.808 E3.42818
G1 X163.058 Y76.649 E3.45937
G1 X163.395 Y77.509 E3.49009
G1 X163.631 Y78.195 E3.51422
G1 X163.903 Y79.054 E3.54419
G1 X164.143 Y79.96 E3.57536
G1 X164.304 Y80.884 E3.60656
G1 X164.387 Y81.818 E3.63774
G1 X164.389 Y82.756 E3.66894
G1 X164.312 Y83.691 E3.70015
G1 X164.155 Y84.616 E3.73135
G1 X163.822 Y85.831 E3.77325
G1 X163.556 Y86.62 E3.80095
G1 X163.216 Y87.547 E3.83379
G1 X162.866 Y88.378 E3.86378
G1 X162.598 Y88.948 E3.88473
G1 X161.816 Y90.547 E3.94393
G1 X160.778 Y92.828 E4.02728
G1 X159.788 Y95.179 E4.11213
G1 X158.892 Y97.483 E4.19435
G1 X158.044 Y99.868 E4.27854
G1 X157.258 Y102.29 E4.36323
G1 X156.566 Y104.648 E4.44496
G1 X155.908 Y107.148 E4.53095
G1 X155.345 Y109.569 E4.61362
G1 X154.844 Y112.035 E4.69731
G1 X154.414 Y114.507 E4.78077
G1 X154.049 Y117.017 E4.86513
G1 X153.762 Y119.491 E4.94797
G1 X153.542 Y122 E5.03174
G1 X153.391 Y124.532 E5.1161
G1 X153.313 Y127.062 E5.20029
G1 X153.3 Y128.624 E5.25224
G1 X153.299 Y137.93 E5.56176
G1 X153.288 Y138.657 E5.58594
G1 X153.234 Y139.594 E5.61716
G1 X153.1 Y140.522 E5.64835
G1 X152.888 Y141.436 E5.67955
G1 X152.598 Y142.328 E5.71075
G1 X152.234 Y143.192 E5.74193
G1 X151.797 Y144.022 E5.77313
G1 X151.292 Y144.812 E5.80432
G1 X150.72 Y145.556 E5.83553
G1 X150.088 Y146.248 E5.8667
G1 X149.399 Y146.884 E5.89789
G1 X148.658 Y147.46 E5.9291
G1 X147.871 Y147.969 E5.96028
G1 X147.043 Y148.411 E5.99149
G1 X146.181 Y148.779 E6.02267
G1 X145.29 Y149.074 E6.05388
G1 X144.378 Y149.291 E6.08506
G1 X143.451 Y149.43 E6.11624
G1 X142.599 Y149.487 E6.14464
G1 X141.97 Y149.5 E6.16557
G1 X71.865 Y149.499 E8.49727
G1 X71.167 Y149.49 E8.52049
G1 X70.231 Y149.438 E8.55167
G1 X69.302 Y149.306 E8.58287
G1 X68.388 Y149.096 E8.61407
G1 X67.495 Y148.809 E8.64526
G1 X66.63 Y148.446 E8.67646
G1 X65.799 Y148.012 E8.70765
G1 X65.008 Y147.508 E8.73884
G1 X64.263 Y146.938 E8.77004
G1 X63.569 Y146.307 E8.80124
G1 X62.932 Y145.62 E8.8324
G1 X62.355 Y144.88 E8.86361
G1 X61.843 Y144.094 E8.89481
G1 X61.4 Y143.267 E8.92601
G1 X61.029 Y142.406 E8.95719
G1 X60.733 Y141.516 E8.98839
G1 X60.514 Y140.604 E9.01959
G1 X60.373 Y139.677 E9.05077
G1 X60.313 Y138.788 E9.08041
G1 X60.3 Y138.158 E9.10137
G1 X60.301 Y134.663 E9.21761
G1 X60.311 Y133.966 E9.2408
G1 X60.339 Y133.32 E9.2623
G1 X60.453 Y131.762 E9.31426
G1 X60.596 Y129.207 E9.39937
G1 X60.667 Y126.676 E9.48359
G1 X60.665 Y124.152 E9.56754
G1 X60.594 Y121.672 E9.65005
G1 X60.447 Y119.11 E9.73541
G1 X60.367 Y118.128 E9.76818
G1 X60.335 Y117.635 E9.78461
G1 X60.314 Y117.129 E9.80145
G1 X60.3 Y116.282 E9.82963
G1 X60.3 Y101.206 E10.33106
G1 X60.263 Y98.597 E10.41784
G1 X60.156 Y96.075 E10.5018
G1 X59.979 Y93.581 E10.58496
G1 X59.732 Y91.086 E10.66835
G1 X59.412 Y88.586 E10.75218
G1 X58.988 Y85.897 E10.84272
G1 X58.893 Y85.341 E10.86148
G1 X58.775 Y84.411 E10.89266
G1 X58.74 Y83.799 E10.91305
G1 X58.727 Y83.17 E10.93397
G1 X58.728 Y82.028 E10.97196
G1 X58.737 Y81.361 E10.99414
G1 X58.79 Y80.424 E11.02536
G1 X58.922 Y79.496 E11.05653
G1 X59.133 Y78.582 E11.08773
G1 X59.421 Y77.689 E11.11894
G1 X59.783 Y76.824 E11.15013
G1 X60.219 Y75.994 E11.18131
G1 X60.723 Y75.203 E11.21251
G1 X61.293 Y74.458 E11.24371
G1 X61.924 Y73.765 E11.27488
G1 X62.612 Y73.127 E11.30609
G0 F6000 X63.001 Y73.324
G1 F900 X63.737 Y72.77 E11.33673
G1 X64.518 Y72.282 E11.36736
G1 X65.338 Y71.864 E11.39797
G1 X66.191 Y71.519 E11.42857
G1 X67.072 Y71.249 E11.45922
G1 X67.972 Y71.057 E11.48983
G1 X68.886 Y70.943 E11.52046
G1 X69.439 Y70.913 E11.53888
G1 X70.057 Y70.9 E11.55944
G1 X133.88 Y70.9 E13.6822
G1 X136.505 Y70.863 E13.76952
G1 X139.013 Y70.756 E13.85301
G1 X141.533 Y70.578 E13.93704
G1 X144.075 Y70.326 E14.022
G1 X146.02 Y70.083 E14.08719
G1 X146.877 Y69.967 E14.11596
G1 X147.688 Y69.889 E14.14305
G1 X148.395 Y69.849 E14.16661
G1 X150.816 Y69.752 E14.24719
G1 X151.661 Y69.729 E14.27531
G1 X152.581 Y69.744 E14.30591
G1 X153.497 Y69.839 E14.33654
G1 X154.401 Y70.013 E14.36716
G1 X155.287 Y70.265 E14.3978
G1 X156.147 Y70.593 E14.42841
G1 X156.976 Y70.994 E14.45904
G1 X158.039 Y71.651 E14.5006
G1 X158.533 Y71.998 E14.52068
G1 X159.355 Y72.609 E14.55475
G1 X160.067 Y73.193 E14.58538
G1 X160.725 Y73.837 E14.616
G1 X161.325 Y74.535 E14.64661
G1 X161.863 Y75.283 E14.67726
G1 X162.333 Y76.074 E14.70786
G1 X162.732 Y76.903 E14.73846
G1 X163.016 Y77.639 E14.7647
G1 X163.352 Y78.628 E14.79944
G1 X163.521 Y79.172 E14.81839
G1 X163.755 Y80.062 E14.84899
G1 X163.912 Y80.97 E14.87964
G1 X163.989 Y81.887 E14.91025
G1 X163.987 Y82.808 E14.94088
G1 X163.904 Y83.725 E14.97151
G1 X163.742 Y84.631 E15.00212
G1 X163.443 Y85.703 E15.03913
G1 X163.177 Y86.492 E15.06683
G1 X162.841 Y87.408 E15.09928
G1 X162.504 Y88.208 E15.12815
G1 X162.238 Y88.772 E15.14889
G1 X161.449 Y90.384 E15.20858
G1 X160.42 Y92.646 E15.29124
G1 X159.427 Y95.002 E15.37627
G1 X158.514 Y97.353 E15.46016
G1 X157.658 Y99.758 E15.54506
G1 X156.893 Y102.117 E15.62755
G1 X156.169 Y104.58 E15.71293
G1 X155.528 Y107.02 E15.79684
G1 X154.948 Y109.511 E15.88191
G1 X154.451 Y111.958 E15.96496
G1 X154.017 Y114.452 E16.04916
G1 X153.655 Y116.946 E16.13298
G1 X153.36 Y119.481 E16.21786
G1 X153.141 Y121.977 E16.3012
G1 X152.992 Y124.495 E16.38509
G1 X152.913 Y127.047 E16.47001
G1 X152.9 Y128.62 E16.52233
G1 X152.899 Y137.924 E16.83178
G1 X152.888 Y138.651 E16.85597
G1 X152.834 Y139.57 E16.88659
G1 X152.7 Y140.481 E16.91721
G1 X152.488 Y141.377 E16.94784
G1 X152.2 Y142.251 E16.97844
G1 X151.836 Y143.097 E17.00907
G1 X151.4 Y143.908 E17.0397
G1 X150.896 Y144.678 E17.07031
G1 X150.326 Y145.402 E17.10096
G1 X149.696 Y146.073 E17.13157
G1 X149.011 Y146.687 E17.16216
G1 X148.274 Y147.24 E17.19281
G1 X147.492 Y147.726 E17.22343
G1 X146.671 Y148.143 E17.25406
G1 X145.817 Y148.487 E17.28468
G1 X144.937 Y148.755 E17.31528
G1 X144.036 Y148.946 E17.34591
G1 X143.122 Y149.058 E17.37654
G1 X142.588 Y149.087 E17.39433
G1 X141.97 Y149.1 E17.41489
G1 X71.87 Y149.099 E19.74642
G1 X71.172 Y149.09 E19.76964
G1 X70.253 Y149.038 E19.80025
G1 X69.342 Y148.907 E19.83087
G1 X68.446 Y148.697 E19.86147
G1 X67.571 Y148.41 E19.8921
G1 X66.724 Y148.048 E19.92274
G1 X65.912 Y147.614 E19.95336
G1 X65.141 Y147.112 E19.98396
G1 X64.416 Y146.544 E20.01459
G1 X63.743 Y145.915 E20.04523
G1 X63.128 Y145.231 E20.07583
G1 X62.574 Y144.496 E20.10644
G1 X62.086 Y143.715 E20.13707
G1 X61.667 Y142.895 E20.1677
G1 X61.321 Y142.042 E20.19831
G1 X61.051 Y141.162 E20.22893
G1 X60.858 Y140.261 E20.25958
G1 X60.744 Y139.348 E20.29018
G1 X60.713 Y138.777 E20.3092
G1 X60.7 Y138.158 E20.32979
G1 X60.701 Y134.669 E20.44583
G1 X60.711 Y133.972 E20.46902
G1 X60.738 Y133.349 E20.48976
G1 X60.855 Y131.756 E20.54289
G1 X60.996 Y129.24 E20.6267
G1 X61.067 Y126.687 E20.71165
G1 X61.065 Y124.175 E20.79519
G1 X60.992 Y121.638 E20.87961
G1 X60.846 Y119.093 E20.9644
G1 X60.766 Y118.103 E20.99743
G1 X60.734 Y117.61 E21.01386
G1 X60.714 Y117.121 E21.03014
G1 X60.7 Y116.282 E21.05805
G1 X60.7 Y101.2 E21.55968
G1 X60.663 Y98.575 E21.647
G1 X60.556 Y96.066 E21.73052
G1 X60.378 Y93.546 E21.81455
G1 X60.128 Y91.027 E21.89874
G1 X59.809 Y88.538 E21.9822
G1 X59.372 Y85.764 E22.0756
G1 X59.288 Y85.274 E22.09214
G1 X59.172 Y84.361 E22.12275
G1 X59.14 Y83.788 E22.14184
G1 X59.127 Y83.17 E22.1624
G1 X59.128 Y82.033 E22.20021
G1 X59.137 Y81.366 E22.2224
G1 X59.189 Y80.447 E22.25301
G1 X59.321 Y79.536 E22.28363
G1 X59.532 Y78.639 E22.31428
G1 X59.819 Y77.765 E22.34488
G1 X60.182 Y76.918 E22.37553
G1 X60.616 Y76.107 E22.40612
G1 X61.119 Y75.336 E22.43674
G1 X61.687 Y74.611 E22.46737
G1 X62.316 Y73.939 E22.49798
G1 X63.001 Y73.324 E22.5286
G0 F6000 X63.389 Y73.524
G1 F900 X64.12 Y72.994 E22.55863
G1 X64.895 Y72.531 E22.58866
G1 X65.708 Y72.138 E22.61869
G1 X66.553 Y71.818 E22.64875
G1 X67.423 Y71.575 E22.67879
G1 X68.311 Y71.409 E22.70884
G1 X69.45 Y71.313 E22.74685
G1 X70.057 Y71.3 E22.76705
G1 X133.886 Y71.3 E24.89001
G1 X136.492 Y71.263 E24.97669
G1 X139.057 Y71.154 E25.06208
G1 X141.564 Y70.976 E25.14568
G1 X144.085 Y70.727 E25.22993
G1 X146.132 Y70.471 E25.29855
G1 X146.931 Y70.363 E25.32536
G1 X147.711 Y70.288 E25.35143
G1 X148.411 Y70.249 E25.37474
G1 X150.832 Y70.152 E25.45533
G1 X151.672 Y70.129 E25.48328
G1 X152.575 Y70.144 E25.51332
G1 X153.473 Y70.24 E25.54336
G1 X154.359 Y70.414 E25.57339
G1 X155.226 Y70.667 E25.60343
G1 X156.067 Y70.995 E25.63345
G1 X156.876 Y71.396 E25.66348
G1 X157.809 Y71.978 E25.70006
G1 X158.303 Y72.325 E25.72014
G1 X159.115 Y72.929 E25.7538
G1 X159.813 Y73.502 E25.78383
G1 X160.457 Y74.135 E25.81387
G1 X161.043 Y74.823 E25.84392
G1 X161.565 Y75.559 E25.87394
G1 X162.021 Y76.339 E25.90399
G1 X162.405 Y77.156 E25.93401
G1 X162.638 Y77.769 E25.95582
G1 X162.97 Y78.747 E25.99017
G1 X163.139 Y79.291 E26.00912
G1 X163.368 Y80.164 E26.03914
G1 X163.52 Y81.055 E26.0692
G1 X163.592 Y81.955 E26.09923
G1 X163.584 Y82.858 E26.12927
G1 X163.496 Y83.757 E26.15931
G1 X163.329 Y84.644 E26.18933
G1 X163.063 Y85.576 E26.22157
G1 X162.689 Y86.67 E26.26002
G1 X162.466 Y87.268 E26.28125
G1 X162.142 Y88.038 E26.30903
G1 X161.879 Y88.596 E26.32955
G1 X161.09 Y90.208 E26.38924
G1 X160.041 Y92.514 E26.47351
G1 X159.057 Y94.851 E26.55784
G1 X158.14 Y97.21 E26.64202
G1 X157.288 Y99.606 E26.7266
G1 X156.502 Y102.029 E26.81133
G1 X155.786 Y104.466 E26.89581
G1 X155.137 Y106.932 E26.98062
G1 X154.561 Y109.406 E27.06511
G1 X154.059 Y111.882 E27.14913
G1 X153.621 Y114.398 E27.23408
G1 X153.261 Y116.879 E27.31746
G1 X152.963 Y119.436 E27.40308
G1 X152.743 Y121.953 E27.48711
G1 X152.591 Y124.495 E27.57181
G1 X152.513 Y127.031 E27.6562
G1 X152.5 Y128.617 E27.70895
G1 X152.499 Y137.918 E28.01831
G1 X152.488 Y138.645 E28.04249
G1 X152.434 Y139.547 E28.07254
G1 X152.301 Y140.44 E28.10257
G1 X152.089 Y141.318 E28.13261
G1 X151.801 Y142.174 E28.16265
G1 X151.438 Y143.001 E28.19269
G1 X151.003 Y143.792 E28.22272
G1 X150.5 Y144.542 E28.25275
G1 X149.933 Y145.245 E28.28279
G1 X149.305 Y145.895 E28.31285
G1 X148.623 Y146.486 E28.34287
G1 X147.891 Y147.015 E28.37291
G1 X147.115 Y147.477 E28.40294
G1 X146.301 Y147.869 E28.43299
G1 X145.456 Y148.187 E28.46302
G1 X144.586 Y148.429 E28.49306
G1 X143.698 Y148.593 E28.52309
G1 X142.577 Y148.687 E28.56051
G1 X141.97 Y148.7 E28.5807
G1 X71.875 Y148.699 E30.91207
G1 X71.177 Y148.69 E30.93529
G1 X70.276 Y148.639 E30.9653
G1 X69.382 Y148.507 E30.99536
G1 X68.504 Y148.298 E31.02538
G1 X67.647 Y148.011 E31.05544
G1 X66.82 Y147.65 E31.08545
G1 X66.027 Y147.217 E31.1155
G1 X65.276 Y146.716 E31.14553
G1 X64.572 Y146.15 E31.17557
G1 X63.921 Y145.524 E31.20561
G1 X63.328 Y144.843 E31.23564
G1 X62.798 Y144.112 E31.26568
G1 X62.334 Y143.337 E31.29572
G1 X61.94 Y142.524 E31.32577
G1 X61.62 Y141.68 E31.35579
G1 X61.376 Y140.81 E31.38584
G1 X61.21 Y139.922 E31.41589
G1 X61.113 Y138.767 E31.45444
G1 X61.1 Y138.158 E31.4747
G1 X61.101 Y134.675 E31.59054
G1 X61.111 Y133.978 E31.61373
G1 X61.137 Y133.378 E31.6337
G1 X61.252 Y131.807 E31.6861
G1 X61.396 Y129.237 E31.77171
G1 X61.467 Y126.698 E31.85619
G1 X61.465 Y124.164 E31.94047
G1 X61.392 Y121.603 E32.02568
G1 X61.247 Y119.077 E32.10984
G1 X61.165 Y118.077 E32.14321
G1 X61.133 Y117.584 E32.15964
G1 X61.114 Y117.114 E32.17529
G1 X61.1 Y116.282 E32.20296
G1 X61.1 Y101.194 E32.70479
G1 X61.063 Y98.588 E32.79148
G1 X60.954 Y96.022 E32.8769
G1 X60.776 Y93.515 E32.96049
G1 X60.525 Y90.974 E33.04542
G1 X60.207 Y88.496 E33.12851
G1 X59.767 Y85.702 E33.22258
G1 X59.682 Y85.207 E33.23929
G1 X59.569 Y84.31 E33.26936
G1 X59.54 Y83.777 E33.28711
G1 X59.527 Y83.17 E33.30731
G1 X59.528 Y82.038 E33.34496
G1 X59.537 Y81.371 E33.36714
G1 X59.589 Y80.47 E33.39716
G1 X59.721 Y79.576 E33.42722
G1 X59.931 Y78.698 E33.45724
G1 X60.218 Y77.842 E33.48727
G1 X60.58 Y77.014 E33.51733
G1 X61.013 Y76.222 E33.54735
G1 X61.515 Y75.471 E33.5774
G1 X62.081 Y74.768 E33.60741
G1 X62.708 Y74.117 E33.63748
G1 X63.389 Y73.524 E33.66751
G1 F3000 E28.66751
G0 F6000 X118.89 Y91.102
G1 F3000 E33.66751
G1 F900 X119.271 Y91.101 E33.68018
G1 X119.111 Y91.582 E33.69704
G1 X119.074 Y91.865 E33.70653
G1 X119.014 Y91.528 E33.71792
G1 X118.89 Y91.102 E33.73268
G0 F6000 X118.515 Y91.234
G1 F900 X118.335 Y90.9 E33.7453
G1 X118.169 Y90.703 E33.75386
G1 X120.104 Y90.7 E33.81822
G1 X119.922 Y90.862 E33.82633
G1 X119.699 Y91.169 E33.83895
G1 X119.544 Y91.515 E33.85156
G1 X119.466 Y91.885 E33.86413
G1 X119.466 Y92.264 E33.87674
G1 X119.547 Y92.635 E33.88937
G1 X119.702 Y92.98 E33.90195
G1 X119.927 Y93.285 E33.91456
G1 X120.211 Y93.536 E33.92716
G1 X120.587 Y93.749 E33.94153
G1 X122.295 Y94.274 E34.00097
G1 X122.667 Y94.346 E34.01357
G1 X123 Y94.344 E34.02464
G1 X125.814 Y94.067 E34.11869
G1 X126.185 Y93.991 E34.13129
G1 X126.674 Y93.748 E34.14945
G1 X130.173 Y91.285 E34.29177
G1 X131.577 Y90.544 E34.34457
G1 X131.884 Y90.544 E34.35478
G1 X132.021 Y90.644 E34.36042
G1 X132.074 Y90.805 E34.36606
G1 X132.033 Y90.929 E34.3704
G1 X126.396 Y94.715 E34.59625
G1 X122.381 Y94.868 E34.72989
G1 X120.764 Y94.531 E34.78483
G1 X118.831 Y92.781 E34.87155
G1 X118.62 Y91.598 E34.91152
G1 X118.515 Y91.234 E34.92412
G0 F6000 X118.129 Y91.349
G1 F900 X117.958 Y91.061 E34.93526
G1 X117.725 Y90.823 E34.94634
G1 X117.441 Y90.646 E34.95747
G1 X117.124 Y90.541 E34.96857
G1 X116.848 Y90.514 E34.9778
G1 X103.756 Y90.514 E35.41324
G1 X103.538 Y90.392 E35.42155
G1 X103.75 Y90.286 E35.42943
G1 X118.144 Y90.286 E35.90818
G1 X118.366 Y90.303 E35.91558
G1 X122.775 Y90.296 E36.06223
G1 X123.345 Y90.712 E36.0857
G1 X123.368 Y90.78 E36.08809
G1 X123.292 Y91.011 E36.09617
G1 X123.159 Y91.055 E36.10083
G1 X122.798 Y90.792 E36.11569
G1 X122.507 Y90.629 E36.12678
G1 X122.185 Y90.54 E36.13789
G1 X121.693 Y90.552 E36.15426
G1 X120.975 Y90.699 E36.17864
G1 X120.658 Y90.805 E36.18976
G1 X120.375 Y90.983 E36.20087
